/* XPM */
static char *collect[] = {
"64 64 43 1 ",
"  c #491914",
". c #561D16",
"X c #4E2213",
"o c #532913",
"O c #593811",
"+ c #6A221A",
"@ c #79261D",
"# c #5E4110",
"$ c #63490F",
"% c #6C5A0D",
"& c #675810",
"* c #74690B",
"= c #79740A",
"- c #81281F",
"; c #8A2B20",
": c #962E23",
"> c #9F3024",
", c #A73226",
"< c #BA372A",
"1 c #C0392B",
"2 c #C53F31",
"3 c #817F09",
"4 c #CA4637",
"5 c #D65747",
"6 c #DD6251",
"7 c #E46B5A",
"8 c #E8705F",
"9 c #E97160",
"0 c #7D830D",
"q c #888D07",
"w c #8C9706",
"e c #95A804",
"r c #99BA07",
"t c #8EB812",
"y c #8AB815",
"u c #A1BD01",
"i c #9DC205",
"p c #A2C500",
"a c #A4C700",
"s c #A7C900",
"d c #A4C804",
"f c #A9CA00",
"g c #ABCC00",
"asfsssssaasssffssfsasfsassfsfgfsssaaasssgffsfffssssfsssfssfffsaa",
"sffffsassaassassffssafsassssffssasaaasffssssssssffssaaasssssssaa",
"asffffssaaaasaaafsaasssssaaaaaaaasaaasfffffsasfffffffffffssssssa",
"asffssffsaaasaaasaiaiiaaaaaaaaaaassffassfsssssfgfffffffgssasaass",
"aaaaassssssaasaaaayrtyaaaaaaaaasaaffgfssffssffffsfffsfffaaffssss",
"aaaaafsaasfssfsssatirrssaaaaaassasfaffffsfaffffffffffffaaiifdfff",
"aaaaaaaaasssffsssasaaaasaaaassssaassssffffssasffffffffsssttiysff",
"fssaaaaaafssfffaasfaasaaaaasssssasssfffsasssasfffffsssffsrtitaff",
"aasassaasfsssffasffssaaaaaaaaaasasssfsffassssssffsssssffssassssa",
"assffsaasfsssfsssassfsasaaaaaaasaasssssfsasssaaaasssaaaaassssass",
"fffssssssssssfssssfsfsssaaaaaasaaiasffsfsaassssaiasaaiiaaassaapa",
"fsifdtsaassaasssssffssssaasfssffsaasffsffaasfssaapaaaiaassaaaass",
"siyddtaaaasaaassssssaaasssfffffffaaasfssssassssfsaaaaaaasssassas",
"sdtdfdssssaaasfsasssaiaaaasffffsssaaasassaaaasaaaaaaaaaaaassaaas",
"sssffsssffasssfsafsfsiassssfssssssaaadsaiasssaaaaaaaaaaaaassaaas",
"ssssssssffasssffffsffassssssssssssssstrayisssaaaaaaaaaaaaaaaaaaa",
"saasfssssssfsffffffsffssaaaaaaaaaasasrtiyiaafssaaassaaaaaasaiaas",
"aasssssssssfffsssffssfasfsaaaaaaaaaaaaaaissaurrpasssaaaaaaaaiaaa",
"sassaassffffssssffffffsssssaaaaaaaaaasssae=&OOO$*wasaassssaaaaas",
"aasaaaasssfsasssfffffsfsssaaaaaaaaaasarq%o       o%esaffsaaaaass",
"assaassffffsssssfffsaasfssaaaaaaaaarw*O   .@:,>;+  #efaqqaaaaaaa",
"asfsassssffsssssffsfsfsffssaaasfpe=#X  .+:,11111<:. #reo*aaaaaaa",
"assssaasaaaaasaffffffffffssssaeq$o  .+;,<111111111,. %&Orssaassa",
"sssaaaaaaaaaaaaffsssffffsssrq%o   o-,<1111111111111:   %usfssssa",
"aaaaaaaaaaaasasffsffffgfuw*O   .@:<1245641111111111<+ XoO*rassaa",
"aaaaaaaaaaasasffsffgfae=#X  .+:,<2457899741111111111- $q%$rsasss",
"aaaaaaaaasaasasssfae0$o   +;,<1457798889741111111111: #uarssaaff",
"iasaaaaaasssssssrq%o   o-,<1456788888887411111111111: Orssaaaasa",
"asaaaaaaaaasaae*O   .@><1245789888987542111111111111; $aaaaasasa",
"sfaaaaaaaaasr*o  .+:,<2457898889976541<111111111111<+ *saaassasa",
"sfsssaaaaasr&  +;,<1457798888976541<111111111111111,.Xwssfssssss",
"fssssaaaaap% .;<1456799888987542111111111111111111,+ &pssfffffsf",
"saaaaaaaasq  :1257899989875421<111111111111111111,+ oegfssfffaaa",
"aaaaassafu$ @<1598899976541<111111111111111111<,@. oqasffsfsaass",
"aaaaasffgwX.,11599977541<111111111111111111<,;+   #wfssfsaaaasfs",
"aaaaasffgq +<114565421111111111111111111<,:+.  X$3ugssssfasasfsa",
"aaaasffas* @1111121<111111111111111111<>@.   O*wpffsaasffassssfs",
"aaasffasg* @11111111111111111111111<,-.   o%qrfgsasfsassfssssfff",
"aasfsa=*w= +<1111111111111111111<,;+   o$qeagfffssffffssssfsfffs",
"aasssa=Ooo .,1111111111111111<,:+.  X$=epssasfassiasfffsffffssss",
"asssaaar=X  @<111<111111111<>@.   O*wuggfffaaftrayifffffffssssss",
"aaasassa*o*X.:1111111111<,-o   o%qrfgsssfffaafrtayifffffsaaassss",
"aaaaasswo=p% .:<11111<,;+   o$qefgfffffffsaaaaiiadssfssssssfffsa",
"aaaaaaae%rgr$  +:,,,:+.  X#=epfssfgffssfsaaaaaaaasaassssssasfsss",
"aaaaaaaapasfr*o  ...   O*wuffsaaaaffsffsaaaassssaaaaassaaasfssss",
"aaaaasaiaassfaw*OoooO&0yaffsaaaaaaassffaassassaaaaaasssaaassssas",
"aassaaaaaaaffasareeettiraasassaaaaaaassaasfssaaaaaafsaaaasssffss",
"aaaaaaasssafsaaaaasfsssaassssssaaassaassasfaaaiaaaaaaaaaaassssss",
"ssaaasaasaasaaaaaaaaaaaaafsafssssssaaasfsfsaaaaasaaaaaaaasfsasss",
"sassaaasssssaaaaaaaaaaaaaasssssassaaaaaaasaaaaaaaaaasaasssssssss",
"aasfsaafsssfsssaaaaaaaaaaasaaassaasssaaasaaaaasaaaaasasasaaaasfs",
"aaassassaaffsssaaapaaaaasfssaaasssffsaaaaaasaassassssssasaasffss",
"aiaaaasasssssasaaaaaasasssssassssfffssaasfssaaasssffffssaaafssas",
"aiaaaaaassfaaaaaaaaaasffffaaaasssfssasasffsfsfssfssfffstriiasssa",
"aaaaaasssssaaaasssfsssffssaaaaasaassaaaaffffffffffffsaiyrttaiasa",
"asassfsssffaaaasfsfssasfsssasssaaaafsasssfffffssssffaaariiiaiaaa",
"asfffffsssssaaaassssaaassasasssaaaassffssffsfsasassfaaasfsfsaaaa",
"aaffffsasaaaaaaiaasfaaasfsssssssaasffsssssfsfsfsssssaasaaaaaaaaa",
"sassssaaaaartattaassaasfsssssassaassfffsasfffffffsaasssaaaaaaaaa",
"aasssasaasaryaytaafaaaassssaaafsffffffffffggffffsssasaaaaaassaaa",
"aasssssaasaaiaiiassaaaaasaassafsssssssffggfffsssaafssaaassfffssa",
"saaffsfssaasaaaaasaaaaaasssfffffsssfffffggffsssssssaaaaassfsssss",
"saaassssfsaaaasaaaaaaaaaasffasfffffgfggfffsssassassffaasffssssss",
"sasassssssaasaassaapassaafffsssfgfgfffffssssaaaaaassfasffssssffa"
};
