/* XPM */
static char *exit[] = {
"64 64 44 1 ",
"  c #5F6638",
". c #6C782D",
"X c #606738",
"o c #423E4F",
"O c #403C50",
"+ c #45424C",
"@ c #515743",
"# c #566140",
"$ c #A85D55",
"% c #B25260",
"& c #DD7F49",
"* c #E87754",
"= c #E97556",
"- c #FB5E6E",
"; c #FD5C70",
": c #F66467",
"> c #7C8F1F",
", c #7E911F",
"< c #738129",
"1 c #82951E",
"2 c #95BE0C",
"3 c #8FAA11",
"4 c #8AB815",
"5 c #90BC12",
"6 c #B0BC0D",
"7 c #BBAD1B",
"8 c #B5B514",
"9 c #858B27",
"0 c #BFA622",
"q c #C79E2B",
"w c #D68E3D",
"e c #CE9336",
"r c #D19337",
"t c #C4A426",
"y c #9DC205",
"u c #A3C800",
"i c #A5C800",
"p c #A6C800",
"a c #A8C900",
"s c #AACB00",
"d c #ABCC00",
"f c #B4C10B",
"g c #DA8743",
"h c #E08249",
"iiaiiiiiiiiiiaaiiaiiiaiuiiaiaaaiiiiuiiiidaaiaaaaiiiaiiiaaiaaaiuu",
"iaaaaiiiiuiiiiiiaaiiiaiiiiiiaaiiiiiuiiaaiiiiiiiiaaiiiiiiiiaiiiii",
"iiaaaaiiiuuiiiiiaiiiiiiiiiiiiiiiiiiiiiaaaaaaiiaaaaaaaaaaaiiiiiii",
"uiaaiiaaiuuiiiiiiiyuuyiiuuuuiuuiiiiaaiiaaaiiiaadaaaaaaadaiiiiiii",
"uiuuiiiiiiiiiiiiiu4254uiiiuuiuuiiiaadaiiaaiaaaaaaaaaiaaauuaaaiii",
"uuuuiaiiiiaaiaiiii5y22iiuuuuiiiiiiaiaaaaaaiaaaaaaaaaaaaiuyyauaaa",
"iiiiiiiuiiiaaaiiu2uuuiiiuuuiiiiiiiiiaaaaaaiiiiaaaaaaaaaai54y5iaa",
"aiiiiuuuiaaiaaa3 @.2uiiiiiiiiiiiiiiaaaaiiiiiuiaaaaaiiiaai24y2iaa",
"uiiiiiiuiaiiiaa.OO+1aiiuuiiuuiiiiiiiaiaaiiiiiaiaaiiiiiaaiiiiiiii",
"iiiaaiiiiaiiiai Ooo,diiiii6iuuiiiiiiiiiaiiiiaiiiiiiiuuuiiiaiiiii",
"aaaaiiiiiiiiiai Ooo,df0w&===gt6iuuiiaaiaiuiiiiiiyuiiuyuuiiiiuuui",
"aiyau2iiiiiiiiiXOoo9e=:;;;;;;-=w7uiiaaiaaiuiaiiiuuiuuyuiiiiiuiii",
"iy4iu5iiiiiiiii Ooo$;;;;;;;;;;;;:&06aiiiiiiiii7wtuiiuuiiaiiiiiii",
"iu5iauiiiiiiuiiXOoo%;;;;;;;;;;;;;;-=gq78887qg=:;ruiuuuuiiiiiiiii",
"iiiaaiiiaaiiiiiXOoo%;;;;;;;;;;;;;;;;;-:::::-;;;;ruiiuuuiiiiiuuui",
"iiiiiiiiaaiiiiiXOoo%;;;;;;;;;;;;;;;;;;;;;;;;;;;;euiiiiiuiiiuuuui",
"iiiiaiiiiiiaiaaXOoo%;;;;;;;;;;;;;;;;;;;;;;;;;;;;euiiiiuuuuiuuuii",
"iiiaiiiiiiiaaai Ooo%;;;;;;;;;;;;;;;;;;;;;;;;;;;;euiiiiiiiiiuyuui",
"iiiiiiiaaaaaaii Ooo%;;;;;;;;;;;;;;;;;;;;;;;;;;;;euiiiiiiiiuuuiii",
"iiiiuuiiiiaiiiiXOoo%;;;;;;;;;;;;;;;;;;;;;;;;;;;;ruiiiiaaiiiiuiai",
"iiiiuiiaaaaiiii Ooo%;;;;;;;;;;;;;;;;;;;;;;;;;;;;eiiiiiaiiuuuuuii",
"iiaiiiiiiaaaiii Ooo%;;;;;;;;;;;;;;;;;;;;;;;;;;;;riiiuiiiiiuiiuuu",
"iiiiiiiiiiiiiiu Ooo%;;;;;;;;;;;;;;;;;;;;;;;;;;;;riiiiiiiiiiiiiii",
"iaiiiuuuuiuuiiu Ooo%;;;;;;;;;;;;;;;;;;;;;;;;;;;;riiiiiiiaiiiiiii",
"iiiiuiuuuiuiiiiXOoo%;;;;;;;;;;;;;;;;;;;;;;;;;;;;riiuuiiiiiiuiiiu",
"iiuiiuuuuiiiiiiXOoo%;;;;;;;;;;;;;;;;;;;;;;;;;;;;euiiiiiiiiaiuiii",
"uiiiiuuuiiiiiiiXOoo%;;;;;;;;;;;;;;;;;;;;;;;;;;;;euiiaiiiiiiiuuia",
"yuiiiiiiiiiiiii Ooo%;;;;;;;;;;;;;;;;;;;;;;;;;;;;ruiiiiiiiiiuiiii",
"iiiuuuiiuuiiiii Ooo%;;;-::::-;;;;;;;;;;;;;;;;;;;riiiiiiiiiiiiiii",
"iaiiiiuuuuiiuuy Ooo%;:gq7888tw=-;;;;;;;;;;;;;;;;riaiiiiiiiuiiiii",
"aaiiiuuuuuiiiiu Ooo$e6iuuuiidaft=:;;;;;;;;;;;;;;eiiiuaiuiaiiiiii",
"aiiiiiiuuiiiiiu Ooo9iiiuuiiiaddia7g:-;;;;;;;-:&q6iaiiiiiiaaaaaia",
"iiiiiiiuiiiiiiiXOoo,iiiiiiiiaaaaiia6trh===grt8iidaiiiiaaiiaaaiui",
"iiiuiiiiiaaaaiu Ooo1aiiiiiiiaaaaaiiiidaaaaaiiiiaiiaiiuiaaiaiiuii",
"iuiiiiaaaaaiai4#Ooo,auiiaiiiiaaaaaaiiaiiaaiiiiiiiaaaaiiaiiiiuiai",
"iuuuuiaaaaaiiu4@Ooo,iiiiiiiiiiaaaaiiiiaiaiiiiaaaadaaiiiiaiiiiaii",
"iiiiiaaiiiiiiiy Ooo1aaaiiiiaiiiiaaaaiiiaaaaaiaaaaaaaiiiaaiiiiiai",
"iiiaaaaiiiiiaiiXOoo1aiiiiaiiiiiaadaaiiddaddaaiiaiuiaiiiaaiiiiaaa",
"iuiaiiiuuuiiiii Ooo,iiiiiiiuiiaiaaaaddddaaiiaiaaiiaaaaiiiiaiaaaa",
"uiiiiiiuuiiiiiiXOoo,iiiiiiiuiiiaaaaadddaiiiiiauiiyuiaaaaaaaaiiii",
"iiiiiiuiiiiiaaiXOoo,iiiiaiiiiaiadaadaaaaaaauia52u4yaaaaaaaiiiiia",
"uuiiiiiiiiiiiaiXOoo1diiiiaiiiiiidaaaaiiiaaauia25u4yaaaaaiiiiiiii",
"uuiuiiiuiiaaiiiXOoo1aiiiiiiiiiiiaaaaaaaaaiiuiiyyiuiiaaiiiiiaaaii",
"iuuiiiuuuiiaaiiXOoo,aiiaiiiiiiaiiadaaiiaiuuuuuuiiiiiiiiiiiiiaiii",
"iiiiuiuuuiiaiiiXOoo,yyuuiiiaiiiiuiaaiaaiuuuuiiiiiiuuuiiiuuiaiiii",
"iuiiiiuyiiiiiiu Ooo,55y4iiaiiuuuuuiiiaaiuiiiiiiuiiiiiiiiuiiiiiii",
"iiiiiuuuuiiaiiu Ooo,5522uuiiiiuuiuuiiaiiuiaiiuuiiuiaiiiiiiiiaaii",
"iiuuuuiiiiiaiiu Ooo1iiiiiiiiiiiiiiiiiiiiiiaiiuyuiuuiuuuiiiiaaiia",
"iiiuuiiiiiiiiiu Ooo,iiiiiaiiaiaiiiiiuiiaiaiuuiuiiiuiiiuiiiaiiiii",
"iiiiuuiiiiiiiiu Ooo>iiiuuiiiiiiiiiiuuuiiiiuiuiiiiuuiiiiiiiiiiiii",
"uiiaiuiaiiaaiiiXOoo,iiiiiiiiiiiiuiiiiuuuiiuuuiiiiuiiiiiiiuuuiiai",
"iuiiiiiiiiaaiiiXOoo,iiuiiaiiiuiiiiaaiiuuiiiiiiiiiiiiiiiiiuuiaaai",
"uyuuiiiiiiiiiii Ooo,iiiiiiiiiiiiiaaaiiiiiaiiiiiiiiaaaaiiiiiaiiia",
"uyuiiuiiiiaiiuu Ooo,iiaaaaiiiiiiiaiiiiiiaaaaiaiaaaiaaai52yyiiiii",
"iuuuiiiiiiiiiiu Ooo,iiaaiiuiiuiiiiiiuiiiaaaaaaaaaaaaiuy4245uyiiu",
"iiiiiaiiiaaiuuu.OO+3aiiaiiiiiiiiiiiaiiiiaaaaaaiiiiaaiuu2yyyiyuiu",
"iiaaaaaiiiiiiui3 @<uuuiiiiaiiaiiiiiiaaaiiaaiaiiiiiiaiuuiaiaiiuii",
"iiaaaaiiiiuuuiuuy2iauuiiaiiiaiiiiiiaaaiaiiaaaaaaiiiiiiiiiuiiuuiu",
"iiiiaiiiiui24i44iiiiiiiaiiiiiiiiiiiiadaaiiaaaaaaaiiuiiiiiiuiuuii",
"iiiiiiiuuii24u44iiauuuiiiiiiuiaiiaaaaaaaaaddaaaaiiiiiiuiuiiiiiii",
"iiiiiiaiuiiuyuyyiiiuuuuiiiiiiiaiiiiaiiaaddaaaiiiiiaiiuuuiiaaaiii",
"iiiaaiaiiiiiiuiuiiuuiuuiiiiaaaaaiiiaaaaaddaaiiiiiiiiiiiiiaaiiiii",
"iiiiiiiiaiiiuiiiiiuuiiuiiiaaiiaaaaadaddaaaaiiiiiiiiaaiiiaaiiiiai",
"iiiiiiiiiiuiiiiiiiuuuiiiiaaaiiaadadaaaaaiiiiiiiuuiiaaiiaaiiiaaai"
};
