/* XPM */
static char *floor[] = {
"64 64 8 1 ",
"  c #8FBB12",
". c #9CC207",
"X c #A4C700",
"o c #A5C800",
"O c #A6C900",
"+ c #A8CA00",
"@ c #ABCC00",
"# c #ACCD00",
"oo+ooooooooo++++o+ooo+oXo++++#+++oXXXo++#+++++@+++o+ooo++++++oXX",
"o++@++oo+XXooooo+++oo++oo++o+++oooXXXo+++o++++oo+++ooXoooo+ooooX",
"oo+++++ooXXooooo++XooooooXoooXXXoooooo++++++oo+++@++++++++ooo+oo",
"Xo+++o++oXXoooXX+o.XX.oXXXXXXXXooo+++oo+++ooo++#@++++@@#+ooooooo",
"XXXXo+oooooooooXoX    XXXXXXXXXoXo++#@oo++o+@@++++++++@+XX++++oo",
"XXXXo+oXXo++o+++oX . .ooXXXXXooooo+o+@++++o+@@+++++++++oX..+o++@",
"ooooXoXXXo+++++ooooXXoooXXXo+oooXXoo+++@++o+oo++++@+++++o  . o+@",
"+++ooXXXo++o+@+Xoo+XXoXXooXoo+ooooo++++oo+++X++++++ooo+++  . o++",
"Xo+ooooXo+o++@+Xo++oooXXXXXXXXo+oooo++++oooo+++++oo+oo++ooo+oooo",
"oo+++oXo+++oo+oo+o+o+oooXXXXXXooXoooo++++ooo+oooooooXXXXXo+++ooo",
"+++++oooooooo+oooo++++ooXXXXXo+XXXo+@+++oXXooo+oXX+XXXXXooo+XXXX",
"@o.+o ooooooo++++o+++oo+oX+++o++oXoo+++++XXo+o+oXXoXXXXXooooXo+o",
"+. oX ooXooooooo+ooooXXooo+@++@++XXo++oo+ooo+oo+oXXXXXoX+ooooooo",
"oX o+Xooo+ooXo+oo+ooXXXXoo++++++++XXo+ooooooXoooXXoXXXXoXXo+oooo",
"+oo++ooo++o+oo+oo+o++XX+oo++ooo++ooXXXoo.Xo+oooXoXXXXXXXXXooXXX+",
"oooooooo++o++o++++++@oooo++ooo+ooo+oo .X .oooXooXXoooXXXooXXXXXo",
"+oXo++oo+o++o+@+++++++ooooooXXoooooXo. X .oo+oooXXooooXXXXoXXXXo",
"oX++oo+o++++++oo++++++oo+ooXXXoXXXXXoXXo.Xoooo+oXo+ooooooXoXXXXo",
"ooooooo++++++ooo+@+++++o+oooXXXXXXXXXooXXXXo+oXXoooooXo+ooXXXooo",
"XoooXXoo+o+ooo++++@@+o+ooooXXXXXoXXXXXXXo+++++ooooXXoo++ooXXXo+o",
"o++oXo+++@@++ooo++++XXo+ooXXXXXoXXXXX+++oo++oooXXo+ooo+oXXXXXXoo",
"oo+ooo++o+++ooo+++o++++++ooXXXoo+oooo++o+oooXXoooooXXXooooXooXXX",
"ooooooooooXoXoo+++++++++++ooooo++++oooXXXXXooooo++oooooo+ooooo+o",
"++ooXXXXXXXXooX+++++@++@+oo+++oo+++oooooXooXoo+oooooo+oo+++o+ooX",
"XooXXXXXXXXXooo@++++++++oo++o+oooo+oXo+++ooXXo++oooXXo+ooooX+oXX",
"ooXooXXXXXoooo++o+@@++oXo+++o++ooo+ooo+oooXXXXXoooooXooXoo+oXooo",
"XooooXXXoooooo+oXo++XoooXo++++oo++++++ooo+ooooXXXooo++oooX+oXX++",
"XXoXXoXXoooooooo+ooXooXXXo++++oXo++++ooo+oooooooooXo+oXXoooXoooo",
"ooXXXXXXXXXoXooooXXooXXXoXo+++++XXXoooXX+o+++++ooo+ooo+ooXoXoooX",
"++oooXXXXXXoXXXoXXXXXXXoXXo+++#@ooXo++++++++o++o+o+XXooooXXooooX",
"++oooXXXXXoooXooXXoXXoooXXXo@@##+++++@#+oo+o++oooo+XX+oX++++oooo",
"++oo+XXXXX+oooooXX+oXooXXooo+#@+++@#++#+++oo++Xo+++ooo+o++++@+o+",
"oooXoXXXXo+oooooooo+XoooXoo+++++++++++++++++++o++++ooX+++o+++oXo",
"oooXoooX+++++oXooo++oXoo+oo++++++++++++@@++o++o++o+oXXo++o++XXo+",
"XXXXo++@@+@++o .. ++oXoo++ooo+++++++o+o+++ooooooo++++oo+oooXXo+o",
"XXXXXo+++@++XX    oooooooooo++++++o+o++o++++o++++#@+ooo++ooX++oX",
"XoXXo++ooooooo...X++o+++o+++o+++++++oo+++++++++@@+++ooo++X++o++o",
"oXo+++++++o+++oooo@@+++oo+ooo++++@@+o+@@@@#++o++oXo+ooo++++o++++",
"XX++o+oXXXo++oo++++ooXoooooXoo+++++@#@@@@++o++++o+++++ooo+++++++",
"Xo+ooooXXoo++o+++ooXXooXooXXoo++++++##@+oooXo+Xo+.X+@++++++++oo+",
"Xoo+oXXoo+oo++++oooooooo++Xoo+++#++#@++++++XX+ .X .++++++++oo+o+",
"XXoooooooooo+++oo++@@+oX++ooo+o+#@+++o+++++XX+. X .++@@+ooooo+oo",
"XXoXXooXoo++oo+Xo++++oooooo+Xooo++++++++++oXXXX.oXo+++ooo+o+++oo",
"oXXoooXXXX+++o+XXoo+++o++oooXo++o+@+++++oXXXXXXXoooooooo+oo+++oo",
"XXXXXXXXXX++ooooXooo..XXoo+++ooXXX+@++++XXXXooooooXXXo+oXXo++ooo",
"oXXXooXXXXoo+oXXXooX  . oo+oXXXXXXXo+#+oXooXooXXXoooo++XXXo++ooo",
"oo+ooXXXXXo++oXXXXXo  . XXooooXXoXXXo+oXXo+ooXXXXXX++oXXooo++++o",
"XoXXXXooooo++oooXXo+ooooXooo+ooooo+oXXoooo+ooXXXoXXoXXXXoo++++++",
"oooXXooooooooXXXoXXXoooXo+oo+++oooooXoo+o+oXXoXooXXooXXooo++o+++",
"oo+oXXoooo++oooXXXXXXXoXXooooo+XooXXXXooXoXXXXoooXXXoooooo+ooooo",
"XX++oXX++o+++ooXXXXXXXooXooXoo+oXooooXXXoXXXXoooXXXXoooooXXXX++o",
"oXoooo+ooX+++++XXXXXXXXX+++oXXo++o@+ooXXXXXoooooXooooooXoXXo+++o",
"XXXXXooooo+ooXoXoXXooooo+++ooo+oo+++ooXXo+++oooo+o+++++ooXX++oo+",
"XXXXXXXoo++oXXXooXooXo+@++oXXoooo++ooooo++++++o++++@@+o ...ooooo",
"oXXXoooooooXXXXo+o+ooo+++oXoXXo+Xoo+Xooo++++++++++++oXX    XXXoX",
"ooooo++oo++oXXXX+++++oo++o+ooo+oXXo++ooo++++@++ooo++XXX ...XXXoX",
"Xo@++++oooooXXXXooooXXX+oo+o+++oXoo+++++o+++++ooooo+oXXo+o++oXoX",
"oo++++ooooXXXoX.XX++XXX++ooo+oo+oo++++o+++++++++oooooXoooXooXXoX",
"oXoo+ooooXX  o  XXooXoo+ooo+oo+ooo+++@++oo+++@@++ooXoooXXXXXXXoX",
"oooooooXXoo  X  oo+XXXXoo+ooXX+o++++++++++#@@@@+oo+ooXXXXXoooooo",
"Xoo+oo+XX+oX.X..oooXXXXXooo+oo+o++o++o++#@@++ooooo+ooXXXo++++++o",
"ooo+++++ooo+XXoXo+XXXXXooo++++@++oo+++@+#@@+ooo+o+ooXoXoo+++o+oo",
"ooXo+ooo+oooXoooooXXXXXXo+++o+++++@@+##++++oooo+o+o++ooo+++ooo+o",
"oooo+oo++oXooXXooXXXXooXo+++oo+@#+@+++@+ooo+XooXXoo++oo+@++o+++o"
};
