/* XPM */
static char *player[] = {
"64 64 61 1 ",
"  c #191B20",
". c #303238",
"X c #313B49",
"o c #3A4755",
"O c #3E4D63",
"+ c #434241",
"@ c #474748",
"# c #4B5255",
"$ c #585859",
"% c #6B7059",
"& c #485766",
"* c #535A67",
"= c #605E63",
"- c #536675",
"; c #686868",
": c #6E726D",
"> c #787878",
", c #937176",
"< c #7C825F",
"1 c #8FBB11",
"2 c #A0B53A",
"3 c #9CC205",
"4 c #A6C800",
"5 c #ACCC16",
"6 c #B0CF19",
"7 c #B0CA30",
"8 c #8B9657",
"9 c #99A855",
"0 c #A7B853",
"q c #84886B",
"w c #99A56A",
"e c #A7B567",
"r c #B1C64C",
"t c #B5C772",
"y c #58728C",
"u c #677B91",
"i c #A27D84",
"p c #64859A",
"a c #7095AE",
"s c #79A4BD",
"d c #79A5C2",
"f c #77A4D0",
"g c #7CACD6",
"h c #878887",
"j c #95918C",
"k c #979797",
"l c #A9989B",
"z c #A7A7A7",
"x c #B1A9AE",
"c c #B8B8B9",
"v c #D0A5AF",
"b c #D7C2B5",
"n c #A8B6C7",
"m c #83B9E6",
"M c #C7C7C7",
"N c #D9D9D9",
"B c #F4CCD6",
"V c #F0DDE2",
"C c #E8E8E8",
"Z c #F7EAED",
"A c #FEFEFE",
"4444444444444444444444444444444444444444444444444444444444444444",
"4444444444444444444444444444444444444444444444444444444444444444",
"4444444444444444444444444444444444444444444444444444444444444444",
"4444444444444444443433444444444444444444444444444444444444444444",
"4444444444444444441111444444444444444444444444444444444444444444",
"4444444444444444441311444444444444444444444444444444444443344444",
"4444444444444444444445775444444444444444444457775444444441131444",
"4444444444444444444458==%w74444444444444445r8$$#8644444441131444",
"444444444444444444449opp-o@8744444444444459@Opay.944444444444444",
"44444444444444444446%ydddayo$967r0ee0r657%Xysddso$74444444444444",
"44444444444444444447$pdssdda-.%=&###o#%w%oadddddy.r4433444444434",
"4434414444444444444r$assssdsaX&passsap-.&asddddda.94434444444444",
"4314414444444444444r&asssssdsassddddddapsddddddds.q5444444444444",
"4414444444444444444r*ssssssddssddssssddsssddddddso%6444444444444",
"4444444444444444444t-ssdsddddssdddddddddssddddddd*@7444444444444",
"44444444444444444447*sdddddddddddsdddddddddddddddy.7444444444444",
"44444444444444444447:addddddssddda-addsssddddddddpor444444443444",
"4444444444444444444rzsdddddddsdspo@oysdddddddddddaat444444443444",
"4444444444444444440=udddddddssp&#zZc@&psdddddddddddz954444444444",
"444444444444444440+-assssaap-#$kCAAACk*O-passsssappo.86444444444",
"44444444444444447$==##&&&&*>kMCAAAAAAAZch;*&&&&*#*>zM$<644444444",
"44444444444444458$ZZNNMcMNZAAAAAAAAAAAAAAACNMMMNNZAAAM.944444444",
"444444444444444r@cAAAAAAAAAAAAAAAAAAAAAAAAAAAAAAAAAAAAh@74444444",
"444444444444445<$AAAAAAAAAAAAAAAAAAAAAAAAAAAAAAAAAAAAAC.94444444",
"444444444444447@zAAAAAAAAAAAAAAAAAAAAAAAAAAAAAAAAAAAAAA;%6444444",
"44444459054444e@NAAAAAAAAAAAMcAAAAAAAAcCAAAAAAAAAAAAAAAx@7444444",
"444445wo>e54449@ZAAAAAAAAAAAACAAAAAAAANAAAAAAAAAAAAAAAAN.0444444",
"34444r-ao=w645q=AAAAAAAAAAAAAAAAAAAAAAAAAAAAAAAAAAAAAAAC+e444444",
"444449-my*qe55q;AAAAAAAAAAAMhzCAAAAAAAAczcAAAAAAAAAAAAAC@9444444",
"44445qoggX=:r5q;AAAAAAAAAAc.h:jAAAAAAAz.z:jAAAAAAAAAAAAZ@9444444",
"72e0rq=&gd&.qtj=AAAAAAAAAA> Mj@CAAAAAA> cz@CAAAAAAAAAAAZ#8444444",
"*#.#MNj.&mdo+Nc@ZAAAAVVVZAz @@@ZAAAAAAk.:#@CVBBVZAAAAAAZ@9444444",
"agpXkAM:@ympoCN@NAAABlllvNZ>#$xAAAAAAAC:;:cBlvvvBNAAAAAC@e444444",
"&amy#lCk;&dg&NZ@cAAZll,,iiZACCAAAAAAAAAANCAxi,jiljAAAAAM@r444444",
"k&gg-;NC>#am-cAp:AAZBbvvlvZAAAAANZzNZAAAAAANbvvbvbAAAAAk$7444444",
":;umu#jAZuamuxAM@NAAZBBBBVAAAAAAk>;>hNAAAAAAZBBBVZAAAAA:<5444444",
">k&dgy=cx-gmycAA;hAAAZZZZAAAAAAAANNMNAAAAAAAAAAAAAAAAAN@04444444",
"j:$-mmpyyfmguCAAN@cAAAAAAAAAAAAAAAzcAAAAAAAAAAAAAAAAAAk$74444444",
"7lu$&ammmgmfnAAAAk#CAAAAAAAAAAAAAAACAAAAAAAAAAAAAAAAAC$944444444",
"47ee9=&-yypa&NAAAA:;CAAAAAAAAAAAAAAAAAAAAAAAAAAAAAAAAj%744444444",
"4444470e0e=py;CAAACkMNZAAAAAAAAAAAAAMjhhkCAAAAAAAANc;#7444444444",
"44444444440*a&>AAAAAAz>xNAAAAAAAAAAx>cMM$NAAACMxk:>zc<9444444444",
"444444444442-aOlAAAAMxck>>hzcMNCCZNpMCMN;zzh>;>kxMZCZC:044444444",
"444444444444eya#zAAC>khjxcMzk:@:>;h;>MAN$xcMNCAAAAANCAc%64444444",
"4444444444445wus&kChcAANkhhh>;cCc@c:xAC:$zxMMcccccMMCAA>e4444444",
"44444443444445wyaO$kAACAAACC;zANjj$>kjjxczkjjjkkkkjh>MAc<7444444",
"4444444444444458ya.jAx;CAAAC;CACCzxAACAAAAAAAAAAAAAAN$cC>r444444",
"44444444444444458--.=:$xAAAc:NCAN>CAAAAAAAAAAAAAAAzxM@$cj0444444",
"44444444444444445q-p.kM$CAAM$hhhhMAAAAAAAAAAAAAAAC$jhxN;:9444444",
"444444444444444447<yaXk;kAAACAZCAAAAAAAAAAAAAAAAAkhAAAAM.<644444",
"4444444444444444447:-&@;@NAAAAAAAAAAAAAAAAAAAAAAC$MAAAAAh$734444",
"44444444444444444447%>M#.$NAAAAAAAAAAAAAAAAAAAAA>>AAAAAAC$944444",
"434444444444444444447@kM;>$NAAAAAAAAAAAAAAAAAAAk@NAAAAAAAz%74444",
"43444444444444444444rh>khMk$cAAAAAAAAAAAAAAAAAz@MAACMAAAAAk<6444",
"44444444444444444445qzZhhZAc$hNAAAAAAAAAAAAAN>;MAAAZNAAAANx#q744",
"444444444444444444458:zCAAAZN>$>cCcNAACAAACj@jNMcMAAAAAAzq9ee544",
"4444444444444444444447q>zzh::::$%:@NAx$zk>=%%hq88<>cCZZc<5444444",
"444444444444444344444450890727776t;ZA;;h@wr67764470qqhh854444444",
"4444444444411411444444444444444447$zj+;:w54444444445777544444444",
"44444444444114114444444444444444440:q077644444444444444444444444",
"4444444444443433444444444444444444466444444444444444444444444444",
"4444444444444444444444444444444444444444444444444444444444444444",
"4444444444444444444444444444444444444444444444444444444444444444",
"4444444444444444444444444444444444444444444444444444444444444444"
};
