/* XPM */
static char *wall[] = {
"64 64 48 1 ",
"  c #786D1C",
". c #5D4822",
"X c #5B5822",
"o c #634C24",
"O c #6C5426",
"+ c #735929",
"@ c #5C6026",
"# c #5A7728",
"$ c #6A6828",
"% c #766625",
"& c #677628",
"* c #787425",
"= c #837A1C",
"- c #7BB81C",
"; c #5B8B2D",
": c #4E9E2E",
"> c #54992E",
", c #539D30",
"< c #648729",
"1 c #758727",
"2 c #6E9825",
"3 c #4FA02F",
"4 c #56A42D",
"5 c #52A230",
"6 c #66AC28",
"7 c #73A926",
"8 c #6CB327",
"9 c #73B726",
"0 c #8A8A17",
"q c #8E9214",
"w c #929B11",
"e c #98A70D",
"r c #8CBC0D",
"t c #96BC0C",
"y c #88BB16",
"u c #90BC12",
"i c #A1BB05",
"p c #9BC307",
"a c #8DC013",
"s c #90C110",
"d c #A2C600",
"f c #A4C700",
"g c #A1C605",
"h c #A5C800",
"j c #A6C800",
"k c #A7C900",
"l c #A8C900",
"z c #ABCC00",
"fklkkkkkffkkkllkklkfklkdkklllzlkkkfdfkkkzllkllllkkklkkkllklllkdd",
"kllzlkkkkdfkkfkkllkkflkfkkkklllkdkfdfkllkkkkkkkkllkkkffkkklkkkff",
"fkllllkkfddkkffklkffkkkkkffffpsyypdpdkllllllkklllllllllllkffkkkf",
"dkllkkllkddkkfffkkpdgpffdddds-9999---pklllkkkllzlllllllzlkfffkkk",
"dffdfkkkkkkfkkfffdytuydffffp999999984-kkllkkllllllllklllddlllkkk",
"ddddklkffkllklkkkdupttfkddps9999999854pkllkllllllllllllkdpplglll",
"kffffffdfkklllkkkfkddfffft89999999985548ulkkkkllllllllllkuupukll",
"llkffdddflkklllffklddkffp6499999999855556plkdklllllkkkllktuptfll",
"dkkfkkfdklkkkllfkllkkfffr4499999999655554pkkkkkllkkkkkllkkkkkkkf",
"fkkllkffklkkklkkkfkklkfp-54999999994:5554tkkkkffkkkkfddffklkkkkk",
"llllkkkkkkkkklkkkklklg-45:49999989943555:6skkkkfpdkfdpddfkkkdddf",
"zkplgtkffkkffklkkklkky555:4999999994:555549plkkfddfddpffkkffdfkk",
"kpykguffffkfffkkkkkkf-:5::4899999984:555549akkklkfffddffkkkfkkfk",
"kguklgfkkkffdklkfkdpy85:::48999999843555549sdkkffdffdddfffkkkffk",
"kkkllfkkllfkkklkfp-994::::4999999994:::5549-ygkdfdffdddfffkkdddk",
"kkkkkkkkllfkkkllg99994555:4999999994:35556999ydkfdfffffdfffddddk",
"kkfklkkkkkklklllp99994555549999999945555:69999pkddkkkfddddkdddfk",
"ffkkkkkkkkklllkkp99994555549999999943:5::69999akdfkkffffkffdpddf",
"kkkkffkllllllkkkp-9994555549899999945:3::699999udfkkffkkkkdddfkk",
"fkkfddfkkklkkkkp-99994:5554999999994>:3::6999999yfffkkllkfffdflk",
"fklfdkkllllkkkp9999983:555499997999<@>55569999999dkkkklffdddddfk",
"fklkfkkkklllkka9999984355549992%&97%@:5558999999ykkfdfkkkfdffddd",
"fkkkkkfkkffffky9998984::554999&+$7$+#33558999999plkffkkkkkkffkkf",
"kkkffddddfddffs9999994:5>>4999&+o&.+;55558999999-pkfklfklkkkkkkf",
"fffffffddfdfkfdy99999455;$<899&+.O.$,555589999999skddkkkkkkdkkfd",
"ffdffddddffkkkgy99999455,&.&79*+.O.<5555569999999yfkfkkffklfdkkk",
"dffffdddkkkkkfy9999994555>XO*2*O.OX>355::69999999-dklkffffkkddll",
"pdkfffffkkkkkp999999945555;%+o+ooO&4555::69999999ydkkkffkkfdffkf",
"fkfddfffddfkkp9999999455::41O.+oo+245555569999999pkkkkkkffffkfkf",
"llfffffdddfffdy9999994555549&o+ooO<4553>;6999999yklffkkkkfdkkkkf",
"llkkkdddddkkkfgy9999945555497$+OoO<43:;$&69999999plfdlkdklkkkkkk",
"lkkkkfffdfklkkp9999994:5::4991+OoO&4,#+$,69999999alkfkkkklllllkl",
"kkfffffdfkkkffr9999996&&;:4891+OoO#>&.O;369999999alfffllkklllkdf",
"fffdfkkflllllky9999996<++#>891+OoOX$+.#5:6999999yglffdkllklkfdkk",
"fdfffklllllllfy99999985#+oO171+OoO.++@>55699999ygllllkklkfffdklk",
"fddddklllllkfdy99999984:#.OOo%+ooOo++;555699999slzllkkkklkkfklkf",
"fkffkllfkkkkkkpsy999994::#OOo++oo+.+;5555699999allllfkkllfkkkllk",
"ffflllllkkkklkkkfy9999453,&oo++ooO.$,5555699999skdklkfkllkkkklll",
"ffklkkkfddkkkkklla99994:354&O++oOO.&,::5569999ygkkllllkkkklkllll",
"ffkkkkkddfkklklllp-9994:5557*++oO+.&5,,:5698-spkkpdkllllllllkkkk",
"fkkkkfdfkkkfllllkkpy994:,5599*+oO+.&,555:699alutdyplllllllkkkkkk",
"ddkkfkkkffkflllkklllgpr4554891+.++.$,554489yglpudyplllllkkkkkkkk",
"ddfdfkkdffllkklfkkllllky555891+.+O.$>5:-pppdffdpfgkkllkkkkklllkf",
"fddkffdddflllkkdffkkkkkky449-1+.OO.$>56pkddddddffkkfkkkkkkfklkkk",
"ffdddfdddfklkkkfdkfkppddfpspk0O.O+.$6yglfdddfkkkfffddkkkddklkkkk",
"fdffkkdpffkkkfffdfffyupufklkk0O.O+.%tzlfdkkfkkfdffffkkkfdfkkkkkk",
"fkkkfddddfklkffdddfkuuttddkfkq+.O+.%ilkfdklkkddffdflkfffkkkkllkk",
"ffddddkkkkklkffffdkkkkkffkfklq+.O+.%tfkkfklkfdpdfddfdddffkkllkkl",
"kkfddkfkkfkkkfddfffdfkffflkflq+.O+o%tkklklkddfdfkfdfkfdkfklkkkkk",
"kfkkddfkkkkkffffffdddfkddfkkkq+.O+o+tffffkdfdfkfffdfkffkkklkkkkk",
"ffklkdflkkllkkkfddddfffffkkff0+.O+oOtdddkfdddkkffdffkfkffdddfklk",
"fdfkkfkkffllkkkfddddffdfklkkf0+.O+oOekddfffkffkkfkkkkkkffddflllk",
"dpddffkfkkkkkfkdffdffkfklkkkf0+.O+ooekffklkkfffkkkllllkkffflkkkl",
"dpdffdfkkklffdfffdfkfkllllfff0+.O+Ooekfkllllklklllllllkutppfkkkk",
"fdddffkkkkkffffkkklkkkllkfdfd=+.O+O.wkkfllllllllllllkdpytuudpfkd",
"fkfkklkkkllfdddflklkkkklkkkff=O.O+o.qkkkllllllkkkkllfddtpppfpdfd",
"fklllllkkkkkfdddkkkkddfkkklkd O.++O.qllkkllklkkkkkklfddklklkfdff",
"kfllllkkkfdddfdpdfklddfklkkkd +.+++.0lklkkllllllkkkkffkkkdffddfd",
"kfkklkfffdftufuufdkkffklkkkkd*O.++O.=kzlfklllllllkfdkkkffddfddff",
"ffkkkfkddkktydyufklddffkkkkke%O.+++.+qllllzzllllkkkfkfdfdffkkfkk",
"fkkkkklfdkfdpdppfkkddddfkfki*% o+*+  %wlzzlllkkkfklkkdddkklllkkk",
"kffllllkkfkkfdfffkddfddfkklieid0wiqtdeelzzllkkkkkkkfffffklllkkkk",
"kfffkkkklkfkdfkfffddffdffkllkllkllzzlzzllllkkfkkfkkllffkllkkkklk",
"kfkkkkkkkkdfkffkkfdddkkfflllkkllzlllllllkkkkfffddfkllfklllkkkllf"
};
